X:21
T:Saltarello la Regina
C:Anon 14th C, British Library MS Add. 29987
N:Drone:G/D
M:6/8
L:1/8
K:G major
P:Verse 1,2
GFE DEF | GAF G2D | EFG EFD | GFG A2B | Gdc B2A |
 Gdc B2A |  [1 GFG E2B | EBB E3 :|] [2 GFG EFG | A/G/AF G3 ::
P:Verse 3,4
BAG F2E | G2A B2A | GFG E2F | DEF G2D | EFG EFD | GFG A2B |
Gdc B2A | Gdc B2A |  [1 GFG E2B | EBB E3 :|]  [2 GFG EFG | A/G/AF G3 ::
P:Verse 5,6
BAB d2B | cBA B2A | GFG E2F | DEF G2D | EFG EFD | GFG A2B | 
Gdc B2A | Gdc B2A |  [1 GFG E2B | EBB E3 :|] [2 GFG EFG | A/G/AF G3 ::
P:Verse 7,8
BAB d2G | ddG dd2 | BAB d2B | cBA B2A | GFG E2F | DEF G2D | EFG EFD | 
GFG A2B | Gdc B2A | Gdc B2A |  [1 GFG E2B | EBB E3 :|]  [2 GFG EFG | A/G/AF G3 |]

